assets/uswds/img/material-icons/confirmation_number.svg

<svg xmlns="http://www.w3.org/2000/svg" width="24" height="24" viewBox="0 0 24 24"><path d="M22 10V6a2 2 0 0 0-2-2H4c-1.1 0-1.99.89-1.99 2v4c1.1 0 1.99.9 1.99 2s-.89 2-2 2v4c0 1.1.9 2 2 2h16c1.1 0 2-.9 2-2v-4c-1.1 0-2-.9-2-2s.9-2 2-2zm-9 7.5h-2v-2h2v2zm0-4.5h-2v-2h2v2zm0-4.5h-2v-2h2v2z"/></svg>

<svg xmlns="http://www.w3.org/2000/svg" enable-background="new 0 0 24 24" height="24" viewBox="0 0 24 24" width="24"><g><rect fill="none" height="24" width="24" x="0"/></g><g><g><g><path d="M22,10V6c0-1.11-0.9-2-2-2H4C2.9,4,2.01,4.89,2.01,6v4C3.11,10,4,10.9,4,12s-0.89,2-2,2v4c0,1.1,0.9,2,2,2h16 c1.1,0,2-0.9,2-2v-4c-1.1,0-2-0.9-2-2S20.9,10,22,10z M13,17.5h-2v-2h2V17.5z M13,13h-2v-2h2V13z M13,8.5h-2v-2h2V8.5z"/></g></g></g></svg>
